!!!!SEGMENT: pl-wtm--1128-3626--001-002_rozycki-ludomir--contes-d-une-horloge-op-26-no-2-berceuse.krn
!!!cenid: 19xx:149
!!!COM: Różycki, Ludomir
!!!COM-rismID: pe50045573
!!!CDT: 1883-1953
!!!CNT: Polish
!!!GTL: Contes d’une horloge op. 26
!!!OTL: No. 2. Berceuse
!!!OMV: 002
!!!PDT: 1924
!!!AGN:
!!!YEC: Copyright 2022 Narodowy Instytut Fryderyka Chopina (https://polishscores.org)
!!!YEM: License CC-BY-4.0 (https://creativecommons.org/licenses/by/4.0)
!!!SMS-siglum: PL-Wtm
!!!SMS-shelfmark: 1128 3626
!!!SMS-variant:
!!!SMS-altvar:
!!!SMS-shelfwork: 001-002 G
!!!NIFC-rismSourceID: 1001211937
!!!NIFC-rismChildID: 1001211937
!!!NIFC-islandoraID: pl-wtm:82123
!!!URL-pdf-islandora: https://repozytorium.nifc.pl/islandora/object/pl-wtm%3A82123/datastream/PDF/view
!!!URL-scan: https://polish.musicsources.pl/pl/lokalizacje/galeria/druki-muzyczne/18462/5 @EN{Scan on Polish Music Sources Website} @PL{Skany w portalu Dziedzictwo Muzyki Polskiej w otwartym dostępie}
!!!IIIF:
!!!ONB-nifc:
!!!AIN: 1 piano
!!!key: A-
**kern	**fing	**kern	**fing	**dynam
*part1	*part1	*part1	*part1	*part1
*staff2	*	*staff1	*	*
*I"Piano.	*	*I"Piano.	*	*
*I'[pf]	*	*I'[pf]	*	*
*ICklav	*	*ICklav	*	*
*Ipiano	*	*Ipiano	*	*
*clefG2	*	*clefG2	*	*
*k[b-e-a-d-]	*	*k[b-e-a-d-]	*	*
*A-:	*	*A-:	*	*
*M2/4	*	*M2/4	*	*
*	*	*8va	*	*
=1	=1	=1	=1	=1
*	*	*^	*	*
*ped	*below	*	*	*	*
!	!	!LO:TX:a:B:t=Andantino semplice. M. M. [quarter]=84	!	!	!
4A-:/ 4e-: 4cc:	1 3 5	(4eee-/	4aa-\	4	pp
4e-/ 4dd-	2 5	4fff/	4gg\	5	.
=2	=2	=2	=2	=2	=2
*ped	*	*	*	*	*
4A-:/ 4e-: 4cc:	1 3 5	8eee-/L	4aa-\	4	.
.	.	8ddd-/	.	.	.
4e-/ 4dd-	2 5	8ccc/	4gg\	.	.
.	.	8bb-/J	.	.	.
=3	=3	=3	=3	=3	=3
*ped	*	*	*	*	*
4A-:/ 4e-: 4cc:	.	4eee-/	4aa-\	4	.
4e-/ 4dd-	.	4aaa-/	4ff\	5	.
=4	=4	=4	=4	=4	=4
*ped	*	*	*	*	*
4A-:/ 4e-: 4cc:	1 3 5	4eee-/	4gg\	5	.
4a-\ 4ee-	2 5	4ccc/)	4aa-\	4	.
*Xped	*	*	*	*	*
=5	=5	=5	=5	=5	=5
*ped	*	*	*	*	*
4A-:/ 4f: 4dd-:	1 32 5	(8bb-/L	4aa-\	3	<
.	.	8ccc/	.	.	.
4d-/ 4a-	2 5	8ddd-/	4ff\	.	[ >
.	.	8ccc/J	.	.	]]
=6	=6	=6	=6	=6	=6
4A-:/ 4f: 4dd-:	1 2 5	4bb-'/	4aa-\	.	.
4d-/ 4a-	2 5	4bb-'/)	4ff\	.	.
=7	=7	=7	=7	=7	=7
*ped	*	*	*	*	*
4A-/ 4f-X 4dd-	.	(8bb-/L	4aa-\	3	.
.	.	8ccc/	.	.	.
4d-/ 4a-	.	8ddd-/	4ff-X\	.	.
.	.	8ccc/J	.	.	.
=8	=8	=8	=8	=8	=8
4A-/ 4f-X 4dd-	.	4bb-/	4aa-\	3	.
4d-/ 4a-	.	4bb-/	4ff-X\	.	.
*Xped	*	*X8va	*	*	*
!!LO:LB:g=original	!	!	!	!	!
=9	=9	=9	=9	=9	=9
*	*	*8va	*	*	*
4c/ 4a-	3	4eee-/)	4ee-\	5	.
4d-/ 4a-	2	4aa-'/	4ff\	3	.
=10	=10	=10	=10	=10	=10
4c/ 4a-	3	4aa-'/	4ee-\	.	.
4B-/ 4a-	4	4eee-'/	4ff\	.	.
=11	=11	=11	=11	=11	=11
4A-:/ 4e-: 4cc:	1 2 5	(4eee-/	4aa-\	.	.
4e-/ 4dd-	.	4fff/	4gg\	.	.
=12	=12	=12	=12	=12	=12
4A-/ 4e- 4cc	.	8eee-/L	4aa-\	.	.
.	.	8ddd-/	.	.	.
4e-/ 4dd-	.	8ccc/	4gg\	.	.
.	.	8bb-/J	.	.	.
=13	=13	=13	=13	=13	=13
4A-/ 4e- 4cc	.	4eee-/	4aa-\	.	.
4e-/ 4dd-	.	4aaa-/	4ff\	.	.
=14	=14	=14	=14	=14	=14
4A-/ 4e- 4cc	.	4eee-/	4gg\	.	.
4a-\ 4ee-	.	4ccc/)	4aa-\	.	.
=15	=15	=15	=15	=15	=15
4A-/ 4f 4dd-	.	(8bb-/L	4aa-\	.	.
.	.	8ccc/	.	.	.
4d-/ 4a-	.	8ddd-/	4ff\	.	.
.	.	8ccc/J	.	.	.
=16	=16	=16	=16	=16	=16
4A-/ 4f 4dd-	.	4bb-/	4aa-\	.	.
4d-/ 4a-	.	4bb-/)	4ff\	.	.
=17	=17	=17	=17	=17	=17
4A-/ 4f-X 4dd-	.	(8bb-/L	4aa-\	.	.
.	.	8ccc/	.	.	.
4d-/ 4a-	.	8ddd-/	4ff-X\	.	.
.	.	8ccc/J	.	.	.
*	*	*X8va	*	*	*
!!LO:LB:g=original	!	!	!	!	!
=18	=18	=18	=18	=18	=18
*	*	*8va	*	*	*
4A-/ 4f-X 4dd-	.	4bb-/	4aa-\	.	.
4d-/ 4a-	.	4bb-/)	4ff-X\	.	.
=19	=19	=19	=19	=19	=19
*ped	*	*	*	*	*
!	!	!LO:TX:b:i:t=poco rit._	!	!	!
!	!	!LO:TX:b:Bi:t=poco rit._:problem:with line extensions	!	!	!
4A-/ 4e- 4cc	.	(4eee-/	4aa-\	.	<
4e-:/ 4a-: 4ee-:	.	4aaa-:/	4gg-X:\ 4ccc:	.	[[
=20	=20	=20	=20	=20	=20
4A-:/ 4e-: 4cc:	.	4ggg-X:/	4aa--:\	.	>
4e-/ 4b-- 4cc	.	4eee-/)	4gg-X\ 4ccc	.	]]
*Xped	*	*	*	*	*
=21	=21	=21	=21	=21	=21
!	!	!LO:TX:b:i:t=a tempo	!	!	!
4A-/ 4f 4dd-	.	(8fff/L	4aa-\	.	<
.	.	8eee-/	.	.	.
4e-/ 4b-	.	8ddd-/	4ff\	.	.
.	.	8eee-/J	.	.	[[
=22	=22	=22	=22	=22	=22
4A-/ 4f 4dd-	.	4fff/	4aa-\	.	>
4e-/ 4a-	.	4ddd-/)	4ff\	.	]]
=23	=23	=23	=23	=23	=23
4A-/ 4e- 4cc	.	(8eee-/L	4gg\	.	<
.	.	8ddd-/	.	.	.
4b--\	.	8ccc/	4gg-X\	.	.
.	.	8ddd-/J	.	.	[[
=24	=24	=24	=24	=24	=24
4A-/ 4e- 4cc	.	4eee-/	4ff\	.	>
4a-X/	.	4ccc/)	4ff-X\	.	]]
*	*	*v	*v	*	*
*	*	*X8va	*	*
=25	=25	=25	=25	=25
*ped	*	*	*	*
!	!	!LO:TX:b:i:t=poco accelerando_	!	!
!	!	!LO:TX:b:Bi:t=poco accelerando_:problem:with line extensions	!	!
(>4f/ 4a-	1 2	(4ee-\ 4aa-	.	.
4A-/	5	4ddn\ 4ccc	.	.
=26	=26	=26	=26	=26
4f/ 4a-	.	4ee-\ 4aa-	.	.
4A-/	.	4ddn\ 4ccc	.	.
*Xped	*	*	*	*
!!LO:LB:g=original	!	!	!	!
=27	=27	=27	=27	=27
*ped	*	*	*	*
4f-X/ 4a-	.	4ee-\ 4aa-	.	.
4A-/	.	4dd-X\ 4ccc	.	.
=28	=28	=28	=28	=28
4f-X/ 4a-	.	4ee-\ 4aa-	.	.
4A-/)	.	4dd-\) 4ccc	.	.
*Xped	*	*	*	*
=29	=29	=29	=29	=29
*ped	*	*8va	*	*
*	*	*^	*	*
4A-/ 4e- 4cc	.	(4eee-/	4aa-\	.	ppp
!	!	!LO:TX:b:i:t=a tempo	!	!	!
4e-/ 4a- 4ee-	.	4aaa-/	4gg-X\ 4ccc	.	.
=30	=30	=30	=30	=30	=30
4A-/ 4e- 4cc	.	4ggg-X/	4aa--\	.	.
4e-/ 4b-- 4ee-	.	4eee-/)	4gg-X\ 4ccc	.	.
*Xped	*	*	*	*	*
=31	=31	=31	=31	=31	=31
4A-/ 4f 4dd-	.	(8fff/L	4aa-\	5	.
.	.	8eee-/	.	4	.
4e-/ 4b-	.	8ddd-/	4ff\	3	.
.	.	8eee-/J	.	4	.
=32	=32	=32	=32	=32	=32
4A-/ 4f 4dd-	.	4fff/	4aa-\	5	.
4e-/ 4b-	.	4ddd-/)	4ff\	3	.
=33	=33	=33	=33	=33	=33
4A-/ 4e- 4cc	.	8eee-/L	4gg\	5	.
.	.	8ddd-/	.	4	.
4b--~\	.	8ccc/	4gg-X\	3	.
.	.	8ddd-/J	.	4	.
=34	=34	=34	=34	=34	=34
4A-/ 4e- 4cc	.	4eee-/	4ff\	5	.
4a-X~/	.	4ccc/	4ff-X\	4	.
*	*	*v	*v	*	*
*	*	*X8va	*	*
=35	=35	=35	=35	=35
*ped	*	*	*	*
(>4f/ 4a-	.	(4ee-\ 4aa-	2 4	.
*	*	*	*below	*
4A-/	.	4ddn\ 4ccc	1	.
!!LO:LB:g=original	!	!	!	!
=36	=36	=36	=36	=36
*	*	*^	*	*
4f/ 4a-	.	4aa-/	8ee-\	2	.
.	.	.	4ee-\	1	.
4A-/)	.	4ccc/)	.	.	.
.	.	.	8ddn\	1	.
*Xped	*	*	*	*	*
*	*	*v	*v	*	*
=37	=37	=37	=37	=37
*ped	*	*	*above	*
4f-X/ 4a-	.	(4ee-\ 4aa-	2 4	.
4A-/	.	4dd-X\ 4ccc-X	1 5	.
=38	=38	=38	=38	=38
*	*	*^	*	*
*	*	*	*	*^	*
*	*	*	*	*	*below	*
4f-X/ 4a-	.	4aa-/	8ff-X\	4	2	.
.	.	.	4ee-\	.	1	.
4A-/	.	4ccc-X/)	.	5	.	.
.	.	.	8dd-\	.	1	.
*Xped	*	*	*	*	*	*
*	*	*	*	*v	*v	*
*	*	*v	*v	*	*
=39!|:	=39!|:	=39!|:	=39!|:	=39!|:
*ped	*	*8va	*	*
*	*	*^	*	*
!	!	!	!	!	!LO:DY:t=più f
4A-:/ 4f-X: 4ee--:	.	(4ccc-X/	4aa-\	3	f
4f-/ 4cc-X	.	[4fff-X/	4gg-X\	5	.
*Xped	*	*	*	*	*
=40	=40	=40	=40	=40	=40
*ped	*	*	*	*	*
4A-/ 4e- 4ccn	.	8fff-/L]	4aa-\	.	.
.	.	8eee-/	.	4	.
4e-/ 4cc	.	8eee-/	4ggn\	.	.
.	.	8ccc/J	.	.	.
*Xped	*	*	*	*	*
=41	=41	=41	=41	=41	=41
*ped	*	*	*	*	*
!	!	!LO:TX:b:i:t=poco rit._	!	!	!
!	!	!LO:TX:b:Bi:t=poco rit._:problem:with line extensions	!	!	!
4A-/ 4f-X 4dd-	.	8ddd-/L	2aa-\	2	.
.	.	8eee-/	.	3	.
*clefF4	*	*	*	*	*
4D-\	.	8fff-X/	.	4	.
.	.	8aaa-/J	.	5	.
*Xped	*	*	*	*	*
=42	=42	=42	=42	=42	=42
*ped	*	*	*	*	*
4E-:\ 4c-X: 4g-X:	.	4ggg-X/	4gg-X\ 4ddd-	.	.
*clefG2	*	*	*	*	*
4e-/ 4cc-X	.	4eee-/)	4gg-\	.	.
*Xped	*	*	*	*	*
=43	=43	=43	=43	=43	=43
!	!	!LO:TX:b:i:t=a tempo	!	!	!
4F-X/ 4c-X 4a-	.	(4ccc-X/	4aa-\	.	.
4f-X/ 4cc-X	.	[4fff-X/	4gg-X\	.	.
*	*	*X8va	*	*	*
!!LO:PB:g=original	!	!	!	!	!
=44	=44	=44	=44	=44	=44
*ped	*	*8va	*	*	*
4A-/ 4e- 4ccn	.	8fff-X/L]	4aa-\	.	.
!	!	!LO:TX:b:i:t=rit.	!	!	!
.	.	8eee-/	.	.	.
4e-/ 4cc	.	8eee-/	4gg\	.	.
.	.	8ccc/J)	.	.	.
*Xped	*	*	*	*	*
=45	=45	=45	=45	=45	=45
*ped	*	*	*	*	*
4F-X/ 4c-X 4a-	.	(8bb-/L	4aa-\	.	<
.	.	8ccc-X/	.	.	.
4f-X/ 4cc-X	.	8ddd-/	4gg\	.	.
.	.	[8fff-X/J	.	.	[[
*Xped	*	*	*	*	*
=46	=46	=46	=46	=46	=46
*ped	*	*	*	*	*
4A-/ 4e- 4ccn	.	8fff-/L]	4aa-\	.	>
.	.	8eee-/	.	.	.
4e-/ 4cc	.	8eee-/	4gg\	.	.
.	.	8ccc/J)	.	.	]]
*	*	*v	*v	*	*
*Xped	*	*X8va	*	*
=47	=47	=47	=47	=47
*	*	*^	*	*
*ped	*	*	*	*	*
4d-'/ 4a- 4dd-	.	(4aa-/	4gg-X\	.	<
4A-'/	.	[4ddd-/	4ff\	.	[[
*Xped	*	*	*	*	*
=48	=48	=48	=48	=48	=48
*ped	*	*	*	*	*
4e-'/ 4a- 4cc	.	8ddd-/L]	4ff-X\	.	>
.	.	8ccc/	.	.	.
4A-'/	.	8ccc/	4ee-\	.	.
.	.	8aa-/J)	.	.	]]
*Xped	*	*	*	*	*
=49	=49	=49	=49	=49	=49
*ped	*	*	*	*	*
4d-'/ 4a- 4dd-	.	(4aa-/	4gg-X\	.	<
4A-'/	.	4ddd-/	4ff\	.	[[
*Xped	*	*	*	*	*
=50	=50	=50	=50	=50	=50
*ped	*	*	*	*	*
4e-'/ 4a- 4cc	.	8eee-/L	4ff-X\	.	>
.	.	8ccc/	.	.	.
4A-'/	.	8bb-/	4ee-\	.	.
.	.	8aa-/J)	.	.	]]
*Xped	*	*	*	*	*
=51	=51	=51	=51	=51	=51
*ped	*	*	*	*	*
(>4f/ 4a-	.	(4aa-/	(8ee-\	.	.
.	.	.	4ddn\	.	.
4A-/	.	4ccc/	.	.	.
.	.	.	8dd-X\)	.	.
!!LO:LB:g=original	!	!	!	!	!
=52	=52	=52	=52	=52	=52
4f/ 4a-	.	4aa-/	(8ee-\	.	.
.	.	.	4ddn\	.	.
4A-/)	.	4ccc/)	.	.	.
.	.	.	8dd-X\)	.	.
*Xped	*	*	*	*	*
=53	=53	=53	=53	=53	=53
*ped	*	*	*	*	*
(>4f-X/ 4a-	.	(4aa-/	(8ee-\	.	.
.	.	.	4ddn\	.	.
4A-/	.	4ccc-X/	.	.	.
.	.	.	8dd-X\)	.	.
=54	=54	=54	=54	=54	=54
4f-X/ 4a-	.	4aa-/	(8ee-\	.	.
.	.	.	4ddn\	.	.
4A-/)	.	4ccc-X/)	.	.	.
.	.	.	8dd-X\)	.	.
*Xped	*	*	*	*	*
*	*	*v	*v	*	*
=55:|!	=55:|!	=55:|!	=55:|!	=55:|!
*	*	*8va	*	*
*	*	*^	*	*
4A-:/ 4e-: 4cc:	.	(4eee-/	8r	.	pp
.	.	.	8aa-'\	.	.
4e-/ 4dd-	.	4fff/	8r	.	.
.	.	.	8gg'\	.	.
=56	=56	=56	=56	=56	=56
4A-:/ 4e-: 4cc:	.	8eee-/L	8r	.	.
.	.	8ddd-/	8aa-'\	.	.
4e-/ 4dd-	.	8ccc/	8r	.	.
.	.	8bb-/J	8gg'\	.	.
=57	=57	=57	=57	=57	=57
4A-:/ 4e-: 4cc:	.	4eee-/	8r	.	.
.	.	.	8aa-'\	.	.
4e-/ 4dd-	.	4aaa-/	8r	.	.
.	.	.	8ff'\	.	.
=58	=58	=58	=58	=58	=58
4A-:/ 4e-: 4cc:	.	4eee-/	8r	.	.
.	.	.	8gg'\	.	.
4a-\ 4ee-	.	4ccc/)	8r	.	.
.	.	.	8aa-'\	.	.
*	*	*X8va	*	*	*
!!LO:LB:g=original	!	!	!	!	!
=59	=59	=59	=59	=59	=59
*	*	*8va	*	*	*
4A-:/ 4f: 4dd-:	.	(8bb-/L	8r	.	.
.	.	8ccc/	8aa-'\	.	.
4d-/ 4a-	.	8ddd-/	8r	.	.
.	.	8ccc/J	8ff'\	.	.
=60	=60	=60	=60	=60	=60
4A-:/ 4f: 4dd-:	.	4bb-/	8r	.	.
.	.	.	8aa-'\	.	.
4d-/ 4a-	.	4bb-/)	8r	.	.
.	.	.	8ff'\	.	.
=61	=61	=61	=61	=61	=61
4A-/ 4f-X 4dd-	.	(8bb-/L	8r	.	.
.	.	8ccc/	8aa-'\	.	.
4d-/ 4a-	.	8ddd-/	8r	.	.
.	.	8ccc/J	8ff-X'\	.	.
=62	=62	=62	=62	=62	=62
4A-/ 4f-X 4dd-	.	4bb-~/	8r	.	.
.	.	.	8aa-'\	.	.
4d-/ 4a-	.	4bb-~/	8r	.	.
.	.	.	8ff-X'\	.	.
=63	=63	=63	=63	=63	=63
4c'/ 4a-	.	4eee-/)	8r	.	.
.	.	.	8ee-\	.	.
4d-'/ 4a-	.	4aa-'/	8r	.	.
.	.	.	8ff\	.	.
=64	=64	=64	=64	=64	=64
4c'/ 4a-	.	4aa-'/	8r	.	.
.	.	.	8ee-\	.	.
4B-'/ 4a-	.	4eee-'/	8r	.	.
.	.	.	8dd-\	.	.
=65	=65	=65	=65	=65	=65
4A-:/ 4e-: 4cc:	.	(4eee-/	8r	.	.
.	.	.	8aa-\	.	.
4e-/ 4dd-	.	4fff/	8r	.	.
.	.	.	8gg-X\	.	.
*	*	*X8va	*	*	*
!!LO:LB:g=original	!	!	!	!	!
=66	=66	=66	=66	=66	=66
*	*	*8va	*	*	*
4A-:/ 4e-: 4cc:	.	8eee-/L	8r	.	.
.	.	8ddd-/	8aa-\	.	.
4e-/ 4dd-	.	8ccc/	8r	.	.
.	.	8bb-/J	8gg-X\	.	.
=67	=67	=67	=67	=67	=67
4A-:/ 4e-: 4cc:	.	4eee-/	8r	.	.
.	.	.	8ee-\	.	.
4e-/ 4dd-	.	4aaa-/	8r	.	.
.	.	.	8ff\	.	.
=68	=68	=68	=68	=68	=68
4A-:/ 4e-: 4cc:	.	4eee-/	8r	.	.
.	.	.	8gg-X\	.	.
4a-\ 4ee-	.	4ccc/)	8r	.	.
.	.	.	8aa-\	.	.
=69	=69	=69	=69	=69	=69
4A-:/ 4f: 4dd-:	.	(8bb-/L	8r	.	.
.	.	8ccc/	8aa-\	.	.
4d-/ 4a-	.	8ddd-/	8r	.	.
.	.	8ccc/J	8ff\	.	.
=70	=70	=70	=70	=70	=70
4A-:/ 4f: 4dd-:	.	4bb-/	8r	.	.
.	.	.	8aa-\	.	.
4d-/ 4a-	.	4bb-/)	8r	.	.
.	.	.	8ff\	.	.
=71	=71	=71	=71	=71	=71
!	!	!LO:TX:a:i:t=molto rit.	!	!	!
4A-/ 4f-X 4ee--	.	(8ccc-X/L	8r	.	.
.	.	8ddd-/	8aa-\	.	.
4f-/ 4cc-X	.	8eee--/	8r	.	.
.	.	8ddd-/J	8gg-X\	.	.
=72	=72	=72	=72	=72	=72
4A-/ 4f-X 4ee--	.	4ccc-X/	8r	.	.
.	.	.	8aa-\	.	.
4f-/ 4cc-X	.	4ccc-/)	8r	.	.
.	.	.	8gg-X\	.	.
*	*	*X8va	*	*	*
!!LO:LB:g=original	!	!	!	!	!
=73	=73	=73	=73	=73	=73
*ped	*	*8va	*	*	*
4A-:/ 4e-: 4cc:	.	(4eee-/	8r	.	.
.	.	.	8aa-\	.	.
*	*	*	*Xbrackettup	*	*
4e-/ 4a- 4ee-	.	4aaa-/	12r	.	.
.	.	.	12gg-X'\L	.	.
.	.	.	12ccc'\J	.	.
=74	=74	=74	=74	=74	=74
4A-:/ 4e-: 4cc:	.	4ggg-X/	12r	.	.
.	.	.	12aa--'\L	.	.
.	.	.	12ccc'\J	.	.
4e-/ 4b-- 4cc	.	4eee-/	12r	.	.
.	.	.	12gg-X'\L	.	.
.	.	.	12ccc'\J	.	.
*Xped	*	*	*	*	*
=75	=75	=75	=75	=75	=75
*ped	*	*	*Xtuplet	*	*
4A-/ 4f 4dd-	.	6fff/	12r	.	.
.	.	.	12aa-\	.	.
.	.	12eee-/	12r	.	.
4e-/ 4b-	.	8ddd-/L	4ff\	.	.
.	.	8eee-/J	.	.	.
=76	=76	=76	=76	=76	=76
4A-/ 4f 4dd-	.	4fff/	8r	.	.
.	.	.	8aa-'\	.	.
4e-/ 4a-	.	4ddd-/)	4ff\	.	.
*Xped	*	*	*	*	*
=77	=77	=77	=77	=77	=77
*ped	*	*	*	*	*
4A-/ 4e- 4cc	.	(8eee-/L	8r	.	.
.	.	8ddd-/	8gg'\	.	.
4b--~\	.	8ccc/	8r	.	.
.	.	8ddd-/J	8gg-X'\	.	.
*Xped	*	*	*	*	*
=78	=78	=78	=78	=78	=78
*ped	*	*	*	*	*
4A-/ 4e- 4cc	.	4eee-/	8r	.	.
.	.	.	8ff\	.	.
4a-X~/	.	4ccc/)	8r	.	.
.	.	.	8ff-X\	.	.
*	*	*v	*v	*	*
*Xped	*	*X8va	*	*
=79	=79	=79	=79	=79
*	*	*^	*	*
*ped	*	*	*	*	*
!	!	!LO:TX:b:i:t=accelerando_	!	!	!
!	!	!LO:TX:b:Bi:t=accelerando_:problem:with line extensions	!	!	!
4A-/ 4f 4a-	.	(4aa-/	8r	.	.
.	.	.	8ee-\	.	.
4a-/	.	4ccc/	8r	.	.
.	.	.	8ddn\	.	.
*	*	*X8va	*	*	*
!!LO:LB:g=original	!	!	!	!	!
=80	=80	=80	=80	=80	=80
4A-/ 4f 4a-	.	4aa-/	8r	.	.
.	.	.	8ee-\	.	.
4a-/	.	4ccc/)	8r	.	.
.	.	.	8ddn\	.	.
*Xped	*	*	*	*	*
=81	=81	=81	=81	=81	=81
*ped	*	*	*	*	*
4A-/ 4f-X 4a-	.	(4aa-/	8r	.	.
.	.	.	8ddn\	.	.
4a-/	.	4ccc-X/	8r	.	.
.	.	.	8dd-X\	.	.
=82	=82	=82	=82	=82	=82
4A-/ 4f-X 4a-	.	4aa-/	8r	.	.
.	.	.	8ddn\	.	.
4a-/	.	4ccc-X/)	8r	.	.
.	.	.	8dd-X\	.	.
*Xped	*	*	*	*	*
=83	=83	=83	=83	=83	=83
*ped	*	*	*	*	*
!	!	!LO:TX:b:i:t=morendo e poco a poco rit.	!	!	!
4A-/ 4e- 4a-	.	4aa-/	8r	.	.
.	.	.	8cc\	.	.
4ee-'\	.	4aa-/	8r	.	.
.	.	.	8cc\	.	.
=84	=84	=84	=84	=84	=84
4A-/ 4e- 4a-	.	4aa-/	8r	.	.
.	.	.	8cc\	.	.
4ee-\	.	4aa-/	8r	.	.
.	.	.	8cc\	.	.
=85	=85	=85	=85	=85	=85
4r	.	[2aa-/	8r	.	ppp
.	.	.	[8cc\	.	.
4e-'/	.	.	4cc\_	.	.
=86	=86	=86	=86	=86	=86
4A-'/	.	2aa-/]	2cc\]	.	.
4r	.	.	.	.	.
*Xped	*	*	*	*	*
*	*	*v	*v	*	*
==	==	==	==	==
*-	*-	*-	*-	*-
!!!system-decoration: {(s1,s2)}
!!!RDF**kern: > = above
!!!RDF**kern: < = below
!!!ENC: Filip Voros
!!!END: 2023-10-13
!!!EED: Jan Barakat
!!!EEV: 2023-10-25
